atec-cache-info/assets/img/atec-group/atec_wpau_icon.svg

<svg enable-background="new 0 0 118.91 122.88" viewBox="0 0 118.91 122.88" xmlns="http://www.w3.org/2000/svg"><path clip-rule="evenodd" d="m6.41 23.43 49.53 20.15c1.57.64 4.17 1.04 5.74.4l52.42-21.41c1.57-.64-.02-3.49-1.62-4.05l-52.86-18.52c-.4-.14-10.33 3.48-11.72 3.97l-43.11 15.41c-1.67.59-.53 3.17 1.62 4.05zm110.46 70.91-51.73 28.06c-1.49.81-3.56.69-3.56-1.01l-.01-66.03c0-1.7.14-3.36 1.7-4.03l51.92-22.12c1.56-.66 3.73-.07 3.72 1.62l-.34 59.48c-.01 1.69-.21 3.22-1.7 4.03zm-11.88-23.25c3.52 1.5 4.55 6.77 2.28 11.78-2.26 5-6.96 7.84-10.48 6.34s-4.55-6.77-2.28-11.78c2.27-5 6.96-7.84 10.48-6.34zm-18.77-13.81c3.65 1.55 4.7 7.01 2.36 12.19s-7.2 8.12-10.85 6.57-4.7-7.01-2.36-12.19c2.34-5.19 7.2-8.13 10.85-6.57zm-84.41 36.61 51.26 27.75c1.49.81 3.56.69 3.56-1.01l.01-65.42c0-1.7-.14-3.36-1.7-4.03l-51.22-21.96c-1.56-.67-3.72-.07-3.72 1.63l.11 59.02c0 1.69.21 3.21 1.7 4.02zm5.1-18.15c3.21-2.04 7.99.29 10.66 5.2s2.24 10.56-.97 12.6-7.99-.29-10.66-5.2c-2.67-4.92-2.24-10.56.97-12.6zm15.15-11.37c3.4-2.06 8.45.29 11.28 5.26s2.38 10.67-1.02 12.73-8.45-.29-11.28-5.26c-2.84-4.96-2.38-10.66 1.02-12.73zm16.06-12c3.42-2.07 8.51.29 11.36 5.26s2.39 10.68-1.03 12.74c-3.42 2.07-8.51-.29-11.36-5.26s-2.39-10.67 1.03-12.74zm21.04-36.89c6.04 0 10.93 2.34 10.93 5.22s-4.89 5.22-10.93 5.22c-6.03 0-10.93-2.34-10.93-5.22s4.9-5.22 10.93-5.22z" fill-rule="evenodd"/></svg>

<?xml version="1.0" encoding="utf-8"?><svg version="1.1" id="Layer_1" xmlns="http://www.w3.org/2000/svg" xmlns:xlink="http://www.w3.org/1999/xlink" x="0px" y="0px" viewBox="0 0 118.91 122.88" style="enable-background:new 0 0 118.91 122.88" xml:space="preserve"><style type="text/css">.st0{fill-rule:evenodd;clip-rule:evenodd;}</style><g><path class="st0" d="M6.41,23.43l49.53,20.15c1.57,0.64,4.17,1.04,5.74,0.4l52.42-21.41c1.57-0.64-0.02-3.49-1.62-4.05L59.62,0 c-0.4-0.14-10.33,3.48-11.72,3.97L4.79,19.38C3.12,19.97,4.26,22.55,6.41,23.43L6.41,23.43z M116.87,94.34l-51.73,28.06 c-1.49,0.81-3.56,0.69-3.56-1.01l-0.01-66.03c0-1.7,0.14-3.36,1.7-4.03l51.92-22.12c1.56-0.66,3.73-0.07,3.72,1.62l-0.34,59.48 C118.56,92,118.36,93.53,116.87,94.34L116.87,94.34z M104.99,71.09c3.52,1.5,4.55,6.77,2.28,11.78c-2.26,5-6.96,7.84-10.48,6.34 c-3.52-1.5-4.55-6.77-2.28-11.78C96.78,72.43,101.47,69.59,104.99,71.09L104.99,71.09z M86.22,57.28c3.65,1.55,4.7,7.01,2.36,12.19 c-2.34,5.18-7.2,8.12-10.85,6.57c-3.65-1.55-4.7-7.01-2.36-12.19C77.71,58.66,82.57,55.72,86.22,57.28L86.22,57.28z M1.81,93.89 l51.26,27.75c1.49,0.81,3.56,0.69,3.56-1.01l0.01-65.42c0-1.7-0.14-3.36-1.7-4.03L3.72,29.22C2.16,28.55,0,29.15,0,30.85 l0.11,59.02C0.11,91.56,0.32,93.08,1.81,93.89L1.81,93.89z M6.91,75.74c3.21-2.04,7.99,0.29,10.66,5.2s2.24,10.56-0.97,12.6 c-3.21,2.04-7.99-0.29-10.66-5.2C3.27,83.42,3.7,77.78,6.91,75.74L6.91,75.74z M22.06,64.37c3.4-2.06,8.45,0.29,11.28,5.26 c2.83,4.97,2.38,10.67-1.02,12.73c-3.4,2.06-8.45-0.29-11.28-5.26C18.2,72.14,18.66,66.44,22.06,64.37L22.06,64.37z M38.12,52.37 c3.42-2.07,8.51,0.29,11.36,5.26c2.85,4.97,2.39,10.68-1.03,12.74c-3.42,2.07-8.51-0.29-11.36-5.26 C34.24,60.14,34.7,54.44,38.12,52.37L38.12,52.37z M59.16,15.48c6.04,0,10.93,2.34,10.93,5.22c0,2.88-4.89,5.22-10.93,5.22 c-6.03,0-10.93-2.34-10.93-5.22C48.23,17.82,53.13,15.48,59.16,15.48L59.16,15.48z"/></g></svg>
